X:1
T:The Kissing Dance
M:2/4
R:jig
K:D
L:1/8
dc | B2 E2 | E2 cB | BA FE | F2 FG |
AA EF | GE CD | E2 D2 | D2 :|
DE | F2 FE | FA AF | FE EF | E2 FG |
AA EF | GE CD | E2 D2 | D2 :|

